X:1
T:The Ten Virgins
T:The Ten Virgins
T:Rigdon McCoy McIntosh
T:Mary Bridges Canedy Slade, 1876
T:Public Domain Courtesy of the Cyber Hymnal™
T:Public Domain Courtesy of the Cyber Hymnal™
C:Rigdon McCoy McIntosh
Z:Public Domain
Z:Courtesy of the Cyber Hymnal™
%%score ( 1 2 ) ( 3 4 )
L:1/8
M:4/4
K:Eb
V:1 treble 
V:2 treble 
V:3 bass 
V:4 bass 
V:1
 E2 | [EG]2 [EG]2 [EB]2 [EB]2 | [Ec]4 [EB]2 [EG]2 | [DF]2 [FA]2 [EG]2 [DB]2 | [EB]6 E2 | %5
w: 1.~Once,|forth to meet the|bride- groom, At|night ten vir- gins|went; Five|
w: 2.~Then|all the fool- ish|vir- gins Their|need be- gan to|tell; And|
w: 3.~Lord,|Lord, un- to us|o- pen, The|fool- ish vir- gins|cried; “I|
 [EG]2 [EG]2 [EB]2 [EB]2 | [Ec]4 [EB]2 [EG]2 | [DF]2 [FA]2 [EG]2 [DF]2 | E6 [EB]2 | %9
w: lamps were trimmed for|burn- ing, In|five the oil was|spent, And|
w: all the wise ones|an- swered, Go|ye to them that|sell. The|
w: know ye not,” un-|to them The|bride- groom’s voice re-|plied. O|
 [Ge]2 [Bd]2 [Ac]2 [GB]2 | [Ac]4 [ce]2 [Ac]2 | [GB]2 [FA]2 [DF]2 [Dc]2 | (B4 G2) [EB]2 | %13
w: while they slept and|slum- bered, At|mid- night rose the|shout * Be-|
w: fool- ish vir- gins|hast- ened, In|dark- ness, fear, and|shame, * The|
w: Christ- ians, learn the|les- son, Your|lamps be wise and|trim, * And|
 [Ge]2 [Bd]2 [Ac]2 [GB]2 | [Ac]4 [ce]2 [Ac]2 | [GB]2 [FA]2 [EG]2 [DF]2 | E6 z2 || %17
w: hold the bride- groom|com- eth, To|meet him go ye|out.|
w: wise ones rea- dy|wait- ed, And|lo the bride- groom|came!|
w: when the Bride- groom|com- eth, Go|glad- ly in with|Him.|
"^Refrain" [EB]2 [EG]2 [EB]2 [EG]2 | [Ec]2 [EB]2 [EB]4 | [DA]2 [DF]2 [DA]2 [DF]2 | %20
w: |||
w: Watch ye, there- fore,|watch I say,|Watch ye, there- fore,|
w: |||
 [DB]2 [DA]2 [EG]2 z [GB] | ([Ac]>[Bd]) [ce]>[Ac] [GB]2 z [EG] | %22
w: ||
w: watch and pray; Ye|know * not the hour, ye|
w: ||
 ([EG]>[FA]) [GB]>[EG] [DF]2 z [FA] | [EG]2 [CF]2 [B,E]2 [B,D]2 | [B,E]6 |] %25
w: |||
w: know * not the day The|Son of Man may|come.|
w: |||
V:2
 E2 | x8 | x8 | x8 | x6 E2 | x8 | x8 | x8 | E6 x2 | x8 | x8 | x8 | E6 x2 | x8 | x8 | x8 | x8 || %17
 x8 | x8 | x8 | x8 | x8 | x8 | x8 | x6 |] %25
V:3
 [E,G,]2 | [E,B,]2 [E,B,]2 [E,G,]2 [E,G,]2 | [A,,A,]4 [E,G,]2 [E,B,]2 | %3
 [B,,B,]2 [B,,B,]2 [B,,B,]2 [B,,B,]2 | [E,G,]6 [E,G,]2 | [E,B,]2 [E,B,]2 [E,G,]2 [E,G,]2 | %6
 [A,,A,]4 [E,G,]2 [E,B,]2 | [B,,B,]2 [B,,B,]2 [B,,B,]2 [B,,B,]2 | [E,G,]6 [E,G,]2 | %9
 [E,B,]2 [E,B,]2 [E,E]2 [E,E]2 | [A,E]4 [A,E]2 [A,E]2 | [B,E]2 B,2 [B,,B,]2 [B,,B,]2 | %12
 (G,4 B,2) [E,G,]2 | [E,B,]2 [E,B,]2 [E,E]2 [E,E]2 | [A,E]4 [A,E]2 [A,E]2 | %15
 [B,E]2 B,2 [B,,B,]2 [B,,B,]2 | [E,G,]6 z2 || [E,G,]2 [E,B,]2 [E,G,]2 [E,B,]2 | %18
 [E,A,]2 [E,G,]2 [E,G,]4 | [B,,F,]2 [B,,A,]2 [B,,F,]2 [B,,A,]2 | [B,,G,]2 [B,,F,]2 E,2 z [E,E] | %21
 [A,E]2 [A,E]>[A,E] [E,E]2 z [E,B,] | [E,B,]2 [E,B,]>[E,B,] [B,,B,]2 z [B,,B,] | %23
 [E,B,]2 [A,,A,]2 [B,,G,]2 [B,,F,]2 | [E,G,]6 |] %25
V:4
 x2 | x8 | x8 | x8 | x8 | x8 | x8 | x8 | x8 | x8 | x8 | x2 B,2 x4 | E,6 x2 | x8 | x8 | x2 B,2 x4 | %16
 x8 || x8 | x8 | x8 | x4 E,2 x2 | x8 | x8 | x8 | x6 |] %25

